X:1
T:Thème du 1er mouvement de la sonate K.331
T:Thème du 1er mouvement de la sonate K.331
T:W.A. Mozart
C:W.A. Mozart
%%score { 1 | 2 }
L:1/8
M:3/4
K:C
V:1 treble nm="Piano" snm="Pno."
V:2 bass 
V:1
 !3!e2 !4!f2 !3!e2 | !5!g4 !5!g2 | !2!d2 !3!e2 !2!d2 | !4!f4 !4!f2 | !1!c4 !1!c2 | !2!d4 !2!d2 | %6
 !3!e2 !5!g2 !4!f2 | !3!e4 !2!d2 | !3!e2 !4!f2 !3!e2 | !5!g4 !5!g2 | !2!d2 !3!e2 !2!d2 | %11
 !4!f4 !4!f2 | !1!c4 !2!d2 | !3!e4 !4!f2 | !3!e4 !2!d2 | !1!c6 |] %16
V:2
 !5!C,6 | !3!E,6 | !1!G,6 | !4!D,6 | !3!E,6 | !4!D,6 | !5!C,4 !2!F,2 | !1!G,6 | !5!C,6 | !3!E,6 | %10
 !1!G,6 | !4!D,6 | !3!E,4 !4!D,2 | !5!C,4 !2!F,2 | !1!G,6 | !5!C,6 |] %16

